!!!!SEGMENT: pl-wtm--r-1359_stefani-jozef--polka-huzarka.krn
!!!cenid: 18xx:2899
!!!COM: Stefani, Józef
!!!COM-rismID: pe30024097
!!!CDT: 1800/04/16-1876/03/19
!!!CNT: Polish
!!!OTL: Polka Huzarka
!!!PDT:
!!!AGN: Secular; Polka
!!!YEC: Copyright 2022 Narodowy Instytut Fryderyka Chopina (https://polishscores.org)
!!!YEM: License CC-BY-4.0 (https://creativecommons.org/licenses/by/4.0)
!!!SMS-siglum: PL-Wtm
!!!SMS-shelfmark: R 1359
!!!SMS-shelfwork: W
!!!SMS-variant:
!!!SMS-altvar:
!!!NIFC-rismSourceID: 1001119502
!!!NIFC-rismChildID: 1001119502
!!!NIFC-islandoraID: pl-wtm:25345
!!!URL-pdf-islandora: https://repozytorium.nifc.pl/islandora/object/pl-wtm%3A25345/datastream/PDF/view
!!!URL-scan: https://polish.musicsources.pl/pl/lokalizacje/galeria/rekopisy/6211 @EN{Scan on Polish Music Sources Website} @PL{Skany w portalu Dziedzictwo Muzyki Polskiej w otwartym dostępie}
!!!IIIF:
!!!ONB-nifc:
!!!OMD: Maestoso
!!!AIN: 1 forte
!!!key:
**kern	**kern	**dynam
*part1	*part1	*
*staff2	*staff1	*
*Iforte	*Iforte	*
*I"[Fortepian]	*I"[Fortepian]	*
*clefF4	*clefG2	*
*>[A,B,C,D,D,E,F,F,B,G]	*>[A,B,C,D,D,E,F,F,B,G]	*
*>A	*>A	*
*k[b-e-a-]	*k[b-e-a-]	*
*E-:	*E-:	*
*M4/4	*M4/4	*
*met(c)	*met(c)	*
*all\left or center or right	*all\left or center or right	*
*2\right	*2\right	*
=1	=1	=1
!	!LO:TX:a:B:t=Introducjone	!
16E-\LL 16G 16B-	16e-/LL 16g 16ee-	f
16E-\J 16G 16B-	16e-/J 16g 16ee-	.
8E-\J 8G 8B-	8e-/J 8g 8ee-	.
4r	4r	p
16C\LL 16E- 16G 16c	16e-/LL 16g	.
16C\J 16E- 16G 16c	16e-/J 16g	.
8C\J 8E- 8G 8c	8e-/J 8g	.
4r	4r	.
=2	=2	=2
16AA-\LL 16A-	16e-/LL 16f 16cc	f
16AA-\J 16A-	16e-/J 16f 16cc	.
8AA-\J 8A-	8e-/J 8f 8cc	.
4r	4r	p
16BB-\LL 16B-	16d/LL 16f	.
16BB-\J 16B-	16d/J 16f	.
8BB-\J 8B-	8d/J 8f	.
4r	4r	.
=3	=3	=3
!!LO:LB:g=original
8E-\L 8G	8e-/L 8g	.
16G\L 16B-	16g/L 16b-	.
16G\JJ 16B-	16g/JJ 16b-	.
8E-\L 8G	8e-/L 8g	.
8GG\J 8E-	8G/J 8e-	.
8BB-\ 8F	8B-/ 8d 8f	.
8r	(32b-\LLL	.
.	32cc\	.
.	32dd\	.
.	32ee-\JJJ	.
8r	8ff\)	.
(32BB-/LLL	8r	.
32C/	.	.
32D/	.	.
32E-/JJJ)	.	.
=4	=4	=4
8F\	8r	.
8r	(32dd\LLL	.
.	32ee-\	.
.	32ff\	.
.	32gg\JJJ	.
8r	8aa-\)	.
(32D\LLL	8r	.
32E-\	.	.
32F\	.	.
32G\JJJ	.	.
8A-\)	8r	.
8r	(32ff\LLL	.
.	32gg\	.
.	32aa-\	.
.	32bb-\JJ	.
8r	8ccc\J)	.
(32D\LLL	(32ff\LLL	.
32E-\	32gg\	.
32F\	32aa-\	.
32G\JJJ	32bb-\JJJ	.
=5	=5	=5
8.c\L)	8.ccc\L)	.
16B-\Jk	16bb-'\Jk	.
16A-\LL	16aa-'\LL	.
16G\	16gg'\	.
16F\	16ff'\	.
16E-\JJ	16ee-'\JJ	.
16D/LL	16dd'/LL	.
16C/	16cc'/	.
16BB-/	16b-'/	.
16AA-/JJ	16a-'/JJ	.
16GG/LL	16g'/LL	.
16FF/	16f'/	.
16EE-/	16e-'/	.
!LO:TX:b:i:t=attaca Polka	!	!
16DD/JJ	16d'/JJ	.
=6||	=6||	=6||
*>B	*>B	*
*k[b-e-a-]	*k[b-e-a-]	*
*M2/4	*M2/4	*
!!LO:TX:a:t=Polka
!!!OMD: Allegro.
!!LO:PB:g=original
8EE-/L	2r	.
8GG/J 8BB- 8E-	.	.
*rep	*	*
8EE-/L	.	.
8GG/J 8BB- 8E-	.	.
*Xrep	*	*
=7	=7	=7
8EE-/L	2r	.
8GG/J 8BB- 8E-	.	.
*rep	*	*
8EE-/L	.	.
8GG/J 8BB- 8E-	.	.
*Xrep	*	*
!!LO:TX:t=[segno]
=8||	=8||	=8||
*>C	*>C	*
8EE-/L	8g/L	.
8GG/J 8BB- 8E-	16e-/L	.
.	16B-/JJ	.
*rep	*	*
8EE-/L	8G/L	.
8GG/J 8BB- 8E-	8B-/J	.
*Xrep	*	*
=9	=9	=9
8EE-/L	8g/L	.
8GG/J 8BB- 8E-	16e-/L	.
.	16B-/JJ	.
*rep	*	*
8EE-/L	8G/L	.
8GG/J 8BB- 8E-	8B-/J	.
*Xrep	*	*
=10	=10	=10
.	(8qa-/	.
8EE-/L	8e-/L) 8g	.
8BB-/ 8F	8B-'/ 8f	.
8E-/ 8G	8e-'/ 8g	.
8F/J 8A-	8f'/J 8a-	.
=11	=11	=11
8G\ 8B-	8g/ 8b-	.
8r	8r	f
[4EE-/ [4E-	[>4ee-^<\ [4gg	.
=12	=12	=12
8EE-/L] 8E-]	8ee-\L] 8gg]	.
16FF/L 16F	16dd'\L 16ff	.
16FF#X/JJ 16F#X	16cc'\JJ 16ee-	.
8GG/L 8G	8b-'\L 8dd	.
8AA-/J 8A-	8a-'\J 8cc	.
=13	=13	=13
!!LO:LB:g=original
4BB-\ 4B-	(8a-/L 8cc	.
.	8g/) 8b-	.
8BB-\L 8B-	8e-'/ 8g	.
8BB-\J 8B-	8g'/J 8b-	.
=14	=14	=14
4BB-\ 4B-	(8g/L 8b-	.
.	8f/) 8a-	.
8BB-\L 8B-	8e-'/ 8g	.
8BB-\J 8B-	8d'/J 8f	.
=15	=15	=15
4E-\ 4B-	4e-/ 4g	.
4E-\ 4G 4B-	4e-/	.
=16	=16	=16
8E-\L	8gg\L	p
8G\J 8B- 8e-	16ee-\L	.
.	16b-\JJ	.
*rep	*	*
8E-\L	8g/L	.
8G\J 8B- 8e-	8b-/J	.
*Xrep	*	*
=17	=17	=17
8E-\L	8gg\L	.
8G\J 8B- 8e-	16ee-\L	.
.	16b-\JJ	.
*rep	*	*
8E-\L	8g/L	.
8G\J 8B- 8e-	8b-/J	.
*Xrep	*	*
=18	=18	=18
.	(8qaa-/	<
8E-\L	8ee-\L) 8gg	.
8D\ 8F	8b-'\ 8ff	.
8E-\ 8G	8ee-'\ 8gg	.
8F\J 8A-	8ff'\J 8aa-	[[
=19	=19	=19
8G\ 8B-	8gg\ 8bb-	.
8r	8r	f
[>4C\ [4c	[>4ee-^<\ [4gg [4eee-	.
=20	=20	=20
16C\LL] 16c]	8ee-\L] 8gg] 8eee-]	.
16C\J 16c	.	.
8C\J 8c	16ee-\L 16gg 16eee-	.
.	16ee-\JJ 16gg 16eee-	.
8C-X\L 8c-X	8ee-\L 8aan	.
8C-\J 8c-	8ee-\J 8aa	.
=21	=21	=21
!!LO:LB:g=original
*	*^	*
4BB-\ 4B-	(8ccc/L	4dd^\	.
.	8bb-/)	.	.
4BB-\ 4F 4B-	8aa-X/	4dd^\	.
.	8gg/J	.	.
=22	=22	=22	=22
.	(8qgg/	.	.
4BB-\ 4F 4A-	8ff/L)	4dd\	.
.	8een/	.	.
4BB-\ 4F 4A-	8ff/	4dd\	.
.	8gg/J	.	.
=23	=23	=23	=23
8E-\ 8G	8ee-/	8ee-\	.
8r	8r	8ryy	.
4EE-/ 4E-	4ee-\ 4gg 4eee-	4ryy	.
*	*v	*v	*
=24!|:	=24!|:	=24!|:
*>D	*>D	*
8F\L	(8gg\L	mf
8An\J 8e- 8f	16gg-X\L)	.
.	16ff'\JJ	.
*rep	*	*
8F\L	8ee-'\L	.
8A\J 8e- 8f	8cc'\J	.
*Xrep	*	*
=25	=25	=25
8F\L	(8gg\L	.
8B-\J 8d 8f	16gg-X\L)	.
.	16ff'\J	.
*rep	*	*
8F\L	8dd'\	.
8B-\J 8d 8f	8b-'\J	f
*Xrep	*	*
=26	=26	=26
8F\L	8f'\L 8ff	.
8c\J 8e- 8f	16f#X'\L 16ff#X	.
.	16f#'\JJ 16ff#	.
*rep	*	*
8F\L	8g'\L 8gg	.
8c\J 8e- 8f	8an'\J 8aan	.
*Xrep	*	*
=27	=27	=27
8BB-/L	8.b-'\L 8.bb-	.
8F\J 8B- 8d	.	.
.	16cc'\Jk 16ccc	.
*rep	*	*
8BB-/L	8dd'\L 8ddd	.
8F\J 8B- 8d	8f'\J 8ff	.
*Xrep	*	*
=28	=28	=28
!!LO:LB:g=original
8BBn\L	(8aa-\L	mf
8G\J 8d 8f	16gg\L)	.
.	16gg-X\JJ	.
*rep	*	*
8BB\L	8ff\L	.
8G\J 8d 8f	8dd\J	.
*Xrep	*	*
=29	=29	=29
8C\L	(8aa-\L	.
8G\J 8c 8e-	16gg\L)	.
.	16ff\JJ	.
*rep	*	*
8C\L	8ee-\L	.
8G\J 8c 8e-	8cc\J	.
*Xrep	*	*
=30	=30	=30
8FF\L 8F	8f\L 8ff'	f
8F\J 8c 8e-	16f#X\L 16ff#X'	.
.	16f#\JJ 16ff#'	.
*rep	*	*
8FF\L 8F	8g\L 8gg'	.
8F\J 8c 8e-	8an\J 8aan'	.
*Xrep	*	*
=31	=31	=31
8B-\ 8d	(16b-\LL	.
.	16an\	.
8r	16b-\	.
.	16cc\JJ	.
4r	16dd\LL	.
.	16ee-\	.
.	16een\	.
.	16ff\JJ	p
=32	=32	=32
8E-\L	8ee-\L) 8gg	.
8G\J 8B- 8e-	16b-'\L 16ee-	.
.	16g'\JJ 16b-	.
*rep	*	*
8E-\L	8e-'>/L 8g	.
8G\J 8B- 8e-	8g'>/J 8b-	.
*Xrep	*	*
=33	=33	=33
8E-\L	8ee-'\L 8gg	.
8G\J 8B- 8e-	16b-'\L 16ee-	.
.	16g'\JJ 16b-	.
*rep	*	*
8E-\L	8e-'>/L 8g	.
8G\J 8B- 8e-	8g'>/J 8b-	.
*Xrep	*	*
=34	=34	=34
!!LO:LB:g=original
.	(8qaa-/	.
8E-\L	8ee-\L) 8gg	.
8BB-\ 8F	8b-'\ 8ff	<
8E-\ 8G	8ee-'\ 8gg	.
8F'\J 8A-	8ff'\J 8aa-	[[
=35	=35	=35
8G\ 8B-	8gg\ 8bb-	.
8r	8r	.
[4EE-/ [4E-	[>4gg^<\ [4eee- [4ggg	f
=36	=36	=36
8EE-/] 8E-/]	8gg\L] 8eee-] 8ggg]	.
16BBn\LL 16Bn	16gg\L 16ddd 16fff	.
16C\JJ 16c	16gg\JJ 16ccc 16eee-	.
8BB-X\L 8B-X	8gg\L 8ddd	.
8AA-\J 8A-	8aa-\J 8ccc	.
=37	=37	=37
4BB-\ 4B-	(8aa-\L 8ccc	.
.	8gg\) 8bb-	.
8BB-\L 8B-	8ee-'\ 8gg	.
8BB-\J 8B-	8gg'\J 8bb-	.
=38	=38	=38
*rep	*	*
4BB-\ 4B-	(8gg\L 8bb-	.
.	8ff\) 8aa-	.
8BB-\L 8B-	8ee-'\ 8gg	.
8BB-\J 8B-	8dd'\J 8ff	.
*Xrep	*	*
=39	=39	=39
4E-\ 4B-	4ee-\ 4gg	.
4E-\ 4G 4B-	4ee-\	.
=40	=40	=40
8E-\L	8ee-\L 8gg	p
8G\J 8B- 8e-	16b-\L 16ee-	.
.	16g\JJ 16b-	.
*rep	*	*
8E-\L	8e-/L 8g	.
8G\J 8B- 8e-	8g/J 8b-	.
*Xrep	*	*
=41	=41	=41
!!LO:LB:g=original
8E-\L	8ee-\L 8gg	.
8G\J 8B- 8e-	16b-\L 16ee-	.
.	16g\JJ 16b-	.
*rep	*	*
8E-\L	8e-/L 8g	.
8G\J 8B- 8e-	8g/J 8b-	.
*Xrep	*	*
=42	=42	=42
.	(8qaa-/	.
8E-\L	8ee-\L) 8gg	.
8BB-\ 8F	8b-'\ 8ff	.
8E-\ 8G	8ee-'\ 8gg	.
8F'\J 8A-	8ff'\J 8aa-	.
=43	=43	=43
8G\ 8B-	8gg\ 8bb-	.
8r	8r	.
[4C\ [4c	[4ee-^<\ [4gg [4eee-	f
=44	=44	=44
16C\LL] 16c]	16ee-\LL] 16gg] 16eee-]	.
16C\J 16c'	16ee-\J 16gg 16eee-	.
8C\J 8c'	8ee-\J 8gg 8eee-	.
8C-X\L 8c-X	8ee-\L 8aan	.
8C-\J 8c-	8ee-\J 8aa	.
=45	=45	=45
*	*^	*
4BB-\ 4B-	8ccc/L	4dd^\	.
.	8bb-/	.	.
4BB-\ 4F 4B-	8aa-X/	4dd^\	.
.	8gg/J	.	.
=46	=46	=46	=46
.	8qgg/	.	.
4BB-\ 4F 4A-	8ff/L	4dd^\	.
.	8een/	.	.
4BB-\ 4F 4A-	8ff/	4dd^\	.
.	8gg/J	.	.
=47	=47	=47	=47
8E-\ 8G	8ee-/	8ee-\	.
8r	8r	8ryy	.
!	!	!	!
4EE-/ 4E-	4ee-\ 4gg 4eee-	4ryy	.
*	*v	*v	*
!!LO:TX:i:t=fine
=48:|!;	=48:|!;	=48:|!
*>E	*>E	*
*k[b-e-a-d-]	*k[b-e-a-d-]	*
*M2/4	*M2/4	*
!!LO:PB:g=original
!!LO:TX:i:t=Trio.
8AA-\L	2r	f
8E-\J 8A- 8c	.	.
*rep	*	*
8AA-\L	.	.
8E-\J 8A- 8c	.	.
*Xrep	*	*
=49	=49	=49
8AA-\L	2r	.
8E-\J 8A- 8c	.	.
*rep	*	*
8AA-\L	.	.
8E-\J 8A- 8c	.	.
*Xrep	*	*
=50	=50	=50
8AA-\L	16e-'/LL	p
.	16e-'/J	.
8E-\J 8A- 8c	8e-'/J	.
*rep	*	*
8AA-\L	8a-'/L	.
8E-\J 8A- 8c	8cc'/J	.
*Xrep	*	*
=51	=51	=51
*rep	*	*
8AA-\L	4ee-\	.
8E-\J 8A- 8c	.	.
8AA-\L	4ee-\	.
8E-\J 8A- 8c	.	.
*Xrep	*	*
=52	=52	=52
!LO:TX:t=P:problem=mixed beam	!	!
8EE-/L	(16een\LL	.
.	16ff\)	.
8E-\J 8B- 8d-	16dd-X'\	.
.	16b-'\JJ	.
*rep	*	*
!LO:TX:t=P:problem=mixed beam	!	!
8EE-/L	8g'\L	.
8E-\J 8B- 8d-	8ff'\J	.
*Xrep	*	*
=53	=53	=53
8AA-\L	(16ddn\LL	.
.	16ee-\)	.
8E-\J 8A- 8c	16cc'\	.
.	16b-'\JJ	.
*rep	*	*
8AA-\L	8a-/L	.
8E-\J 8A- 8c	8e-/J	.
*Xrep	*	*
=54	=54	=54
!!LO:LB:g=original
8AA-\L	16e-'/LL 16ee-	.
.	16e-'/J 16ee-	.
8E-\J 8A- 8c	8e-'/J 8ee-	.
*rep	*	*
8AA-\L	8a-\L 8aa-	.
8E-\J 8A- 8c	8cc\J 8ccc	.
*Xrep	*	*
=55	=55	=55
8AA-\L	4ee-\ 4eee-	.
8E-\J 8A- 8c	.	.
8AA-\L	4ff\ 4fff	.
8G\J 8A- 8c	.	.
=56	=56	=56
8GG\L	8gg\L 8ggg	.
8G\J 8c 8e-	16ff\L 16fff	.
.	16ee-\JJ 16eee-	.
8GG\L	8ddn\L 8dddn	.
8G\J 8Bn 8f	16ee-\L 16eee-	.
.	16dd\JJ 16ddd	.
=57	=57	=57
8c\ 8e-	8cc\ 8ccc	.
8r	8r	.
4E-\ 4G 4B- 4d-X	4ee-\ 4eee-	.
=58	=58	=58
8AA-\L	16e-/LL	p
.	16e-/J	.
8E-\J 8A- 8c	8e-/J	.
*rep	*	*
8AA-\L	8a-/L	.
8E-\J 8A- 8c	8cc/J	.
*Xrep	*	*
=59	=59	=59
8AA-\L	4ee-\	.
8E-\J 8A- 8c	.	.
*rep	*	*
8AA-\L	4ee-\	.
8E-\J 8A- 8c	.	.
*Xrep	*	*
=60	=60	=60
!LO:TX:t=P:problem=mixed beam	!	!
8EE-/L	(16een\LL	.
.	16ff\)	.
8E-\J 8B- 8d-	16dd-X'\	.
.	16b-'\JJ	.
*rep	*	*
!LO:TX:t=P:problem=mixed beam	!	!
8EE-/L	8g'\L	.
8E-\J 8B- 8d-	8ff'\J	.
*Xrep	*	*
=61	=61	=61
!!LO:LB:g=original
8AA-\L	(16ddn\LL	.
.	16ee-\)	.
8E-\J 8A- 8c	16cc'\	.
.	16b-'\JJ	.
*rep	*	*
8AA-\L	8a-/L	.
8E-\J 8A- 8c	8e-/J	.
*Xrep	*	*
=62	=62	=62
8AA-\L	16e-\LL 16ee-	.
.	16e-\J 16ee-	.
8E-\J 8A- 8c	8e-\J 8ee-	.
*rep	*	*
8AA-\L	8a-\L 8aa-	.
8E-\J 8A- 8c	8cc\J 8ccc	.
*Xrep	*	*
=63	=63	=63
8AA-\L	8ee-\ 8eee-	.
8E-\J 8A- 8c	8r	.
4Dn\ 4F 4A- 4c-X	[4aa-\	.
=64	=64	=64
8E-\ 8A- 8cn	8aa-\L]	.
8r	16cc\L	.
.	16ff\JJ	.
4E-\ 4G 4B- 4d-	8ee-\L	.
.	16dd-\L	.
.	16b-\JJ	.
=65	=65	=65
8A-\ 8c	8a-/	.
8r	8r	.
4AA-/ 4A-	4cc\ 4ee- 4aa-	.
=66!|:	=66!|:	=66!|:
*>F	*>F	*
.	(8qbbn/	f
8En\L	8ccc\L)	.
8G\J 8B- 8c	8cc'\J	.
*rep	*	*
8E\L	8ccc'\L	.
8G\J 8B- 8c	8cc'\J	.
*Xrep	*	*
=67	=67	=67
!!LO:LB:g=original
.	(8qbbn/	.
8F\L	8ccc\L)	.
8A-\J 8c	8cc\J	.
8AA-\L	8ccc\L	.
8F\J 8A- 8c	8cc\J	.
=68	=68	=68
8C\L	16cc\LL 16ccc	.
.	16ddn\ 16dddn	.
8G\J 8B- 8c	16een\ 16eeen	.
.	16ff\JJ 16fff	.
*rep	*	*
8C\L	8gg\L 8ggg	.
8G\J 8B- 8c	8aa-\J 8aaa-	.
*Xrep	*	*
=69	=69	=69
8F\L	16ff\LL 16fff	.
.	16ff\ 16fff	.
8A-\J 8c	16gg\ 16ggg	.
.	16aa-\JJ 16aaa-	.
!	!LO:TX:t=P:problem=za mało wartości w takcie	!
8E-\L	8ryy	.
8F\J 8An 8c	8aan\ 8aaan	.
=70	=70	=70
.	(8qaan/	.
8Dn\L	8bb-\L)	.
8F\J 8A- 8B-	8b-\J	.
*rep	*	*
8D\L	8bb-\L	.
8F\J 8A- 8B-	8b-\J	.
*Xrep	*	*
=71	=71	=71
.	(8qccc/	.
8E-\L	8bb-\L)	.
8G\J 8B-	8b-\J	.
8GG\L	8bb-\L	.
8E-\J 8G 8B-	8b-\J	.
=72	=72	=72
!!LO:LB:g=original
8BB-\L	16b-\LL 16bb-	.
.	16cc\ 16ccc	.
8F\J 8A- 8B-	16ddn\ 16dddn	.
.	16ee-\JJ 16eee-	.
*rep	*	*
8BB-\L	8ff\L 8fff	.
8F\J 8A- 8B-	8gg\J 8ggg	.
*Xrep	*	*
=73	=73	=73
8E-\ 8G 8B-	8ee-\L 8eee-	.
8r	(16ee-\L	.
.	16ff\JJ	.
4E-\ 4G 4B- 4d-X	16ee-\LL	.
.	16dd-X\	.
.	16b-\	.
.	16g\JJ)	.
=74	=74	=74
8AA-\L	16e-/LL	p
.	16e-/J	.
8E-\J 8A- 8c	8e-/J	.
*rep	*	*
8AA-\L	8a-/L	.
8E-\J 8A- 8c	8cc/J	.
*Xrep	*	*
=75	=75	=75
*rep	*	*
8AA-\L	4ee-\	.
8E-\J 8A- 8c	.	.
8AA-\L	4ee-\	.
8E-\J 8A- 8c	.	.
*Xrep	*	*
=76	=76	=76
!LO:TX:t=P:problem=mixed beam	!	!
8EE-/L	16een\LL	.
.	16ff\	.
8E-\J 8B- 8d-	16dd-X\	.
.	16b-\JJ	.
*rep	*	*
!LO:TX:t=P:problem=mixed beam	!	!
8EE-/L	8g\L	.
8E-\J 8B- 8d-	8ff\J	.
*Xrep	*	*
=77	=77	=77
!!LO:LB:g=original
8AA-\L	(16ddn\LL	.
.	16ee-\)	.
8E-\J 8A- 8c	16cc'\	.
.	16b-'\JJ	.
*rep	*	*
8AA-\L	8a-'/L	.
8E-\J 8A- 8c	8e-'/J	f
*Xrep	*	*
=78	=78	=78
8AA-\L	16e-/LL 16ee-	.
.	16e-/J 16ee-	.
8E-\J 8A- 8c	8e-/J 8ee-	.
*rep	*	*
8AA-\L	8a-\L 8aa-	.
8E-\J 8A- 8c	8cc\J 8ccc	.
*Xrep	*	*
=79	=79	=79
8AA-\L	8ee-\ 8eee-	.
8E-\J 8A- 8c	8r	.
4Dn\ 4F 4A- 4c-X	[4aa-^<\	.
=80	=80	=80
8E-\ 8A- 8cn	8aa-\L]	.
8r	16cc\L	.
.	16ff\JJ	.
4E-\ 4G 4B- 4d-X	8ee-\L	.
.	16dd-\L	.
.	16b-\JJ	.
=81	=81	=81
8A-\ 8c	8a-/	.
8r	8r	.
!LO:TX:b:i:t=dacapo \nPolka\nal fine e poi\nla Coda	!	!
4AA-/ 4A-	4cc^<\ 4ee- 4aa-	.
=82:|!	=82:|!	=82:|!
*>G	*>G	*
*k[b-e-a-]	*k[b-e-a-]	*
*M2/4	*M2/4	*
!!LO:TX:i:t=Coda.
8E-\L	8dd-X/L	p
!LO:SIC:v:s=8d-	!	!
8G\J 8B- 8d	16b-/L	.
.	16g/JJ	.
*rep	*	*
8E-\L	8e-/L	.
!LO:SIC:v:s=8d-	!	!
8G\J 8B- 8d	8b-/J	.
*Xrep	*	*
=83	=83	=83
8E-\L	8cc/L	.
8A-\J 8c	16a-/L	.
.	16e-/JJ	.
*rep	*	*
8E-\L	8c/L	.
8A-\J 8c	8e-/J	.
*Xrep	*	*
=84	=84	=84
8E-\L	16dn/LL	.
!	!	!LO:HP:a
.	16e-/	<
8A-\J 8B- 8dn	16f/	.
.	16g/JJ	.
*rep	*	*
8E-\L	16a-/LL	.
.	16b-/	.
8A-\J 8B- 8dn	16cc/	.
.	16ddn/JJ	.
*Xrep	*	*
=85	=85	=85
8E-\L	16ee-\LL	.
.	16dd\	.
8G\J 8B- 8e-	16ee-\	.
.	16ff\JJ	.
*rep	*	*
8E-\L	16gg\LL	.
.	16aa-\	.
8G\J 8B- 8e-	16bb-\	.
.	16ccc\JJ	[[
*Xrep	*	*
=86	=86	=86
!!LO:LB:g=original
!	!	!LO:HP:t=cresc
8E-\L	8ddd-X\L	<
8G\J 8B- 8d-X	16bb-\L	.
.	16gg\JJ	.
*rep	*	*
8E-\L	8ee-\L	.
8G\J 8B- 8d-	8bb-\J	.
*Xrep	*	*
=87	=87	=87
8E-\L	8ccc\L	.
8A-\J 8c	16aa-\L	.
.	16ee-\JJ	.
*rep	*	*
8E-\L	8cc\L	.
8A-\J 8c	8ee-\J	.
*Xrep	*	*
=88	=88	=88
8BB-\L	16ddn\LL 16ff	f
.	16ee-\ 16gg	.
8D\J 8A- 8B-	16ff\ 16aa-	.
.	16gg\JJ 16bb-	.
*rep	*	*
8BB-\L	16aa-\LL 16ccc	.
.	16bb-\ 16ddd	.
8D\J 8A- 8B-	16ccc\ 16eee-	.
.	16ddd\JJ 16fff	.
*Xrep	*	*
=89	=89	=89
8EE-/L 8E-	8eee-\L 8ggg	.
16FF/L 16F	16ddd\L 16fff	.
16FF#X/JJ 16F#X	16ccc\JJ 16eee-	.
8GG/L 8G	8bb-\L 8ddd	.
8AA-/J 8A-	8aa-\J 8ccc	.
=90	=90	=90
8BB-\L	(8aa-^<\L 8ccc	.
8E-\J 8G 8B-	8gg\) 8bb-	.
*rep	*	*
8BB-\L	8ee-'\ 8gg	.
8E-\J 8G 8B-	8gg'\J 8bb-	.
*Xrep	*	*
=91	=91	=91
8BB-\L	(8gg^<\L 8bb-	.
8D\J 8F 8B-	8ff\) 8aa-	.
8BB-\L	8ee-'\ 8gg	.
8F\J 8A- 8B-	8dd'\J 8ff	.
=92	=92	=92
8E-\ 8G 8B-	8ee-\ 8gg	.
8r	8r	.
4E-\ 4G 4B-	4g/ 4ee-	.
=93	=93	=93
!!LO:LB:g=original
8EE-\L 8E-	8gg\L 8eee- 8ggg	.
16BBn\L 16Bn	16gg\L 16ddd 16fff	.
16C\JJ 16c	16gg\JJ 16ccc 16eee-	.
8BB-X\L 8B-X	8gg\L 8ddd	.
8AA-\J 8A-	8aa-\J 8ccc	.
=94	=94	=94
8BB-\L	(8aa-\L 8ccc	.
8E-\J 8G 8B-	8gg\) 8bb-	.
*rep	*	*
8BB-\L	8ee-'\ 8gg	.
8E-\J 8G 8B-	8gg'\J 8bb-	.
*Xrep	*	*
=95	=95	=95
8C\L	8ee-'\L 8aan	.
8E-\J 8F 8An	(8ggg\	.
8FF\L	8fff\)	.
8C\J 8E- 8F 8A	8aa'\J	.
=96	=96	=96
16BB-\LL	16bb-'\LL	.
16B-\	(16bb-\	.
16An\	16aan\	.
16B-\JJ	16bb-\JJ	.
16A\LL	16ccc\LL	.
16A-X\	16ddd\	.
16G\	16eee-\	.
16F\JJ	16fff\JJ	.
=97	=97	=97
8EE-/L 8E-	8eee-\L) 8ggg	.
16FF/L 16F	16ddd\L 16fff	.
16FF#X/JJ 16F#X	16ccc\JJ 16eee-	.
8GG/L 8G	8bb-\L 8ddd	.
8AA-/J 8A-	8aa-\J 8ccc	.
=98	=98	=98
!!LO:LB:g=original
8BB-\L	(8aa-\L 8ccc	.
8E-\J 8G 8B-	8gg\) 8bb-	.
*rep	*	*
8BB-\L	8ee-'\ 8gg	.
8E-\J 8G 8B-	8gg'\J 8bb-	.
*Xrep	*	*
=99	=99	=99
8BB-\L	(8gg\L 8bb-	.
8D\J 8F 8B-	8ff\) 8aa-	.
8BB-\L	8ee-'\ 8gg	.
8F\J 8A- 8B-	8dd'\J 8ff	.
=100	=100	=100
8E-\ 8G 8B-	8ee-\ 8gg	.
8r	8r	.
4E-\ 4G 4B-	4g/ 4ee-	.
=101	=101	=101
8EE-\L 8E-	8gg\L 8eee- 8ggg	.
16BBn\L 16Bn	16gg\L 16ddd 16fff	.
16C\JJ 16c	16gg\JJ 16ccc 16eee-	.
8BB-X\L 8B-X	8gg\L 8ddd	.
8AA-\J 8A-	8aa-\J 8ccc	.
=102	=102	=102
8BB-\L	(8aa-\L 8ccc	.
8E-\J 8G 8B-	8gg\) 8bb-	.
*rep	*	*
8BB-\L	8gg'\ 8eee-	.
8E-\J 8G 8B-	8ee-'\J 8gg	.
*Xrep	*	*
=103	=103	=103
*	*^	*
8BB-\L	(8ccc/L	4dd^\	.
8F\J 8A- 8B-	8bb-/)	.	.
*rep	*	*	*
8BB-\L	8aa-'/	4dd^\	.
8F\J 8A- 8B-	8ff'/J	.	.
*Xrep	*	*	*
*	*v	*v	*
=104	=104	=104
!!LO:LB:g=original
8E-\ 8G 8B-	8ee-'\L	.
8r	16ee-'\L	.
.	16ee-'\JJ	.
8BB-\ 8F 8B-	(16dd\LL	.
.	16aa-\)	.
8r	16ff'\	.
.	16dd'\JJ	.
=105	=105	=105
8E-\ 8G 8B-	8ee-'\L	.
8r	16ee-'\L	.
.	16gg'\JJ	.
4BB-\ 4D 4F 4B-	(16ccc\LL	.
.	16bb-\)	.
.	16aa-'\	.
.	16ff'\JJ	.
=106	=106	=106
8E-\ 8G 8B-	8ee-'\L	.
8r	16ee-'\L	.
.	16ee-'\JJ	.
8BB-\ 8F 8B-	(16dd\LL	.
.	16aa-\)	.
8r	16ff'\	.
.	16dd'\JJ	.
=107	=107	=107
8E-\ 8G 8B-	8ee-'\L	.
8r	16ee-'\L	.
.	16gg'\JJ	.
4BB-\ 4D 4F 4B-	(16ccc\LL	.
.	16bb-\)	.
.	16aa-'\	.
.	16ff'\JJ	.
=108	=108	=108
8E-\L 8G 8B-	8ee-\L	.
16BB-\L 16F 16B-	16dd\L 16ff	.
16BB-\JJ 16F 16B-	16dd\JJ 16ff	.
8E-\L 8G 8B-	8ee-\L 8gg	.
8BB-\J 8F 8B-	8dd\J 8ff	.
=109	=109	=109
!!LO:LB:g=original
8E-\L 8G 8B-	8ee-\L 8gg	<
8BB-\ 8F 8B-	8dd\ 8ff	.
8E-\ 8G 8B-	8ee-\ 8gg	.
8BB-\J 8F 8B-	8dd\J 8gg 8bb-	.
=110	=110	=110
4.EE-/ 4.E-	4.ee-\ 4.eee-	[ ff
8EE-/ 8E-	8ee-\ 8eee-	.
=111	=111	=111
4BB-\ 4B-	4b-\ 4bb-	.
4GG/ 4G	4g\ 4gg	.
=112	=112	=112
4EE-/ 4E-	4e-/ 4ee-	.
4r	4r	.
=113	=113	=113
4E-\ 4G 4B- 4e-	4g\ 4b- 4ee- 4gg	.
8.r	8.r	.
16EE-/ 16BB- 16E-	16G/ 16B- 16e-	.
=114	=114	=114
2EE-;</ 2BB- 2E-	2G;/ 2B- 2e-	.
==	==	==
*-	*-	*-
!!!system-decoration: {(s1,s2)}
!!!RDF**kern: > = above
!!!RDF**kern: < = below
!!!ENC: Kamil Watkowski
!!!END: 2021-08-10
